icons/line/ticket.svg

<svg width="24" height="24" viewBox="0 0 24 24" fill="none" xmlns="http://www.w3.org/2000/svg">
<path d="M15 5L5 5C3.89543 5 3 5.89543 3 7V9C3 9.55228 3.46906 9.98622 3.96482 10.2296C4.50341 10.494 5 11.0236 5 12C5 12.9764 4.50341 13.506 3.96482 13.7704C3.46906 14.0138 3 14.4477 3 15V17C3 18.1046 3.89543 19 5 19H15M15 5L19 5C20.1046 5 21 5.89543 21 7V9C21 9.55228 20.5309 9.98622 20.0352 10.2296C19.4966 10.494 19 11.0236 19 12C19 12.9764 19.4966 13.506 20.0352 13.7704C20.5309 14.0138 21 14.4477 21 15L21 17C21 18.1046 20.1046 19 19 19H15M15 5V8M15 19V16M15 13V11" stroke="currentColor" stroke-width="2" stroke-linecap="round" stroke-linejoin="round"/>
</svg>

<svg width="24" height="24" fill="none" xmlns="http://www.w3.org/2000/svg"><path d="M15 5H5a2 2 0 00-2 2v2c0 .552.47.986.965 1.23C4.503 10.494 5 11.024 5 12s-.497 1.506-1.035 1.77C3.469 14.014 3 14.448 3 15v2a2 2 0 002 2h10m0-14h4a2 2 0 012 2v2c0 .552-.47.986-.965 1.23-.538.264-1.035.794-1.035 1.77s.497 1.506 1.035 1.77c.496.244.965.678.965 1.23v2a2 2 0 01-2 2h-4m0-14v3m0 11v-3m0-3v-2" stroke="currentColor" stroke-width="2" stroke-linecap="round" stroke-linejoin="round"/></svg>
